X:3114
T:Clogger's Quilt, The
M:4/4
L:1/8
R:reel
D:Joe Burke, Andy McGann and Felix Dolan: A Tribute to Michael Coleman
Z:Devin McCabe
K:F
Bc | d~c3 A~F3 | DGGF G2FD | C~F3 CFAF | GAFG AFFA |
!c2c=B cdcA | GFAF GFDF | CFAF CFAF | GAFG AFF_B |
!A~c3 dcAc | dggf gfde | ~f3d c2Ac | fefg affe |
!f2df c2Ac | dfga gfde | fefd c2Ac | fefg afgf ||


